boomerang.svg

<svg fill="currentColor" viewBox="0 0 24 24"><path d="M10 2H4c-1.1 0-2 .9-2 2s.9 2 2 2h4zm8 0c2.2 0 4 1.8 4 4v6l-4 2c0-4.4-3.6-8-8-8l2-4zm0 18v-4l4-2v6c0 1.1-.9 2-2 2s-2-.9-2-2"/></svg>

<svg  viewBox="0 0 24 24" fill="currentColor"><path  d="M10 2H4C2.9 2 2 2.9 2 4S2.9 6 4 6H8L10 2M18 2C20.2 2 22 3.8 22 6V12L18 14C18 9.6 14.4 6 10 6L12 2H18M18 20V16L22 14V20C22 21.1 21.1 22 20 22S18 21.1 18 20Z"/></svg>
